X: 36490
T: Sept Temps
R: jig
M: 6/8
K: Cmajor
eae fe d2|ede cd ed|dcB Bc de|cBc AB cd|
eae fe d2|ede cd ec|dcB BA Bc|A2 E A4:|
|:c2 B BA Bc|ABc dc cB|c2 B BA Bc|A2 d dc de|
c2 B BA Bc|ABc dc cB|c2 B BA Bc|A2 E A4:|

